packages/swarm-icons/src/icons/solid/Send.svg

<svg xmlns="http://www.w3.org/2000/svg" width="18" height="18" viewBox="0 0 18 18">
  <path fill="#A2A2A2" d="M5.95602588,10.8265404 L2.32247552,9.00976518 C1.87670696,8.7868809 1.89765565,8.14377206 2.35698434,7.95037051 L15.1906186,2.54673504 C15.6190181,2.36635628 16.076008,2.73500847 15.990346,3.19187244 L13.9639827,13.9991434 C13.8925592,14.3800687 13.4763937,14.5867243 13.1297465,14.4134006 L9.90338717,12.800221 L7.7240259,14.9795823 C7.35653778,15.3470704 6.72819026,15.0868003 6.72819026,14.5670937 L6.72819026,11.7694751 L14.54197,3.8739596 L5.95602588,10.8265404 Z"/>
</svg>

<svg xmlns="http://www.w3.org/2000/svg" width="18" height="18"><path fill="#A2A2A2" d="M5.956 10.827L2.322 9.01a.583.583 0 01.035-1.06l12.834-5.403a.583.583 0 01.8.645l-2.027 10.807a.583.583 0 01-.834.414L9.903 12.8l-2.179 2.18a.583.583 0 01-.996-.413V11.77l7.814-7.895-8.586 6.953z"/></svg>
